X:200
T:Moving Cloud                                                                                      
M:4/4                                                                                               
L:/18                                                                                               
K:G                                                                                                 
DGBG EGcG|DGBG AGED|c3 A (3Bcd gb|agdB cAGE|                                                        
DGBG EGcG|DGBG AGED|cBAc BAGB|1 AGEF G3 E :|2 AGEF GABc ||                                          
d2 bd ad gd|d2 bd adgd|e2 c'e beae|e2 (3gfe c'ege|                                                  
d2 bd adgd|d2 bd adgd| cBAc BAGB|1 AGEF GABc :|2 AGEF G2 GA ||                                      
Bd d2 edBA|Bd d2 edcB|ce e2 fe e2|fefe fedc|                                                        
Bd d2 edBA|Bd d2 edcB| cABG AFGE|1 FDEF G2 GA :|2 FDEF GAGE |>|
